X: 1
T: the 4th of May
C: Ali\'enor Latour
R: reel
Z: 2019 John Chambers <jc:trillian.mit.edu>
M: C|
L: 1/8
%P: ABBA
K: A
"^A"[|] E2 |\
"A"A2cB A2E2 | "E7"GABc B4 | "E7"GABA GEFG | "A"ABcd "(E7)"e2E2 ||\
"A"A2cB A2E2 | "E7"GABc B4 |
"E7"GABA GEFG | "A"A2c2 A2e2 \
"^B"|:\
"A"a2ed cBA2 | a2ed cBA2 | "G"=g2d=c BA=G2 | =g2d=c BA=G2 ||
"A"a2ed cBA2 | a2ed cBA2 | "E7"GABA GEFG |1 "A"A2c2 A2g2 :|\
[2 "A"A2c2 A2E2 "^A"||\
"A"A2cB A2E2 | "E7"GABc B4 |
"E7"GABA GEFG | "A"ABcd "(E7)"e2E2 ||\
"A"A2cB A2E2 | "E7"GABc B4 | "E7"GABA GEFG | "A"A2c2 A2 |]
